X:228
T:Blockers, The
T:Sean Ryan's Reel
R:reel
C:Sean Ryan
D:De Danann: The Mist Covered Mountain
Z:id:hn-reel-228
M:C|
K:Dmix
FGAG FD~D2|CA,G,A, CDEG|Ad~d2 ^cded|^cAG=F E=C~C2|
FGAG FD~D2|CA,G,A, CDEG|Ad~d2 ^cded|1 ^cAGE D2DE:|2 ^cAGE DEFA||
|:d2Ad FdAF|~G3A GE^CE|A,D~D2 ^CDEG|FGAB ^cABc|
d2d^c dAFA|~G3A GE^CE|A,D~D2 ^CDEG|1 FDE^C DEFA:|2 FDE^C D2DE||
